;FLAVOR:Marlin
;TIME:491
;Filament used: 0.660271m
;Layer height: 0.2
;MINX:87.76
;MINY:88.59
;MINZ:0.2
;MAXX:120.228
;MAXY:121.057
;MAXZ:15
;Generated with Cura_SteamEngine 4.12.1
M140 S100
M105
M190 S100
M104 S250
M105
M109 S250
M82 ;absolute extrusion mode
G21 ;metric values
G90 ;absolute positioning
M82 ;set extruder to absolute mode
M107 ;start with the fan off
G28 X0 Y0 ;move X/Y to min endstops
G28 Z0 ;move Z to min endstops
G1 Z15.0 F100 ;move the platform down 15mm
G92 E0 ;zero the extruded length
G1 F200 E3 ;extrude 3mm of feed stock
G92 E0 ;zero the extruded length again
G1 F100
G0 Y20 F100
M117 Printing...
G5
G92 E0
G92 E0
G1 F2400 E-6
;LAYER_COUNT:75
;LAYER:0
M107
M204 S3000
M205 X10 Y10
G1 F600 Z0.275
G0 F3000 X92.364 Y93.587 Z0.275
M204 S1800
M205 X8 Y8
;TYPE:SKIRT
G1 F600 Z0.2
G1 F2400 E0
G1 X92.752 Y93.208 E0.01804
G1 X93.158 Y92.832 E0.03644
G1 X93.876 Y92.229 E0.06763
G1 X94.284 Y91.918 E0.08469
G1 X94.731 Y91.596 E0.10302
G1 X95.292 Y91.221 E0.12546
G1 X95.868 Y90.868 E0.14793
G1 X96.417 Y90.556 E0.16893
G1 X97.046 Y90.239 E0.19236
G1 X97.534 Y90.015 E0.21022
G1 X98.441 Y89.648 E0.24276
G1 X99.106 Y89.415 E0.2662
G1 X99.678 Y89.237 E0.28612
G1 X100.305 Y89.066 E0.30774
G1 X100.673 Y88.982 E0.32029
G1 X101.436 Y88.832 E0.34616
G1 X102.056 Y88.737 E0.36702
G1 X102.674 Y88.664 E0.38772
G1 X103.258 Y88.617 E0.4072
G1 X103.966 Y88.59 E0.43077
G1 X104.281 Y88.59 E0.44124
G1 X104.947 Y88.608 E0.4634
G1 X105.548 Y88.644 E0.48343
G1 X106.203 Y88.708 E0.50532
G1 X106.515 Y88.748 E0.51578
G1 X107.083 Y88.837 E0.5349
G1 X107.72 Y88.96 E0.55648
G1 X108.2 Y89.077 E0.57291
G1 X108.757 Y89.227 E0.5921
G1 X109.247 Y89.377 E0.60914
G1 X109.822 Y89.575 E0.62937
G1 X110.476 Y89.828 E0.65269
G1 X110.817 Y89.977 E0.66507
G1 X111.364 Y90.231 E0.68513
G1 X111.9 Y90.501 E0.70509
G1 X112.483 Y90.824 E0.72726
G1 X112.912 Y91.087 E0.74399
G1 X113.403 Y91.415 E0.76363
G1 X113.939 Y91.797 E0.78553
G1 X114.585 Y92.303 E0.81282
G1 X115.158 Y92.805 E0.83816
G1 X115.583 Y93.21 E0.85768
G1 X116.015 Y93.654 E0.87829
G1 X116.583 Y94.289 E0.90662
G1 X117.048 Y94.872 E0.93143
G1 X117.385 Y95.33 E0.95034
G1 X117.788 Y95.927 E0.97429
G1 X118.058 Y96.365 E0.99141
G1 X118.31 Y96.809 E1.00839
G1 X118.554 Y97.267 E1.02565
G1 X118.743 Y97.66 E1.04015
G1 X119.083 Y98.437 E1.06836
G1 X119.344 Y99.112 E1.09243
G1 X119.451 Y99.425 E1.10343
G1 X119.613 Y99.946 E1.12158
G1 X119.704 Y100.268 E1.13271
G1 X119.854 Y100.866 E1.15322
G1 X119.998 Y101.582 E1.17751
G1 X120.096 Y102.239 E1.1996
G1 X120.165 Y102.839 E1.21969
G1 X120.212 Y103.492 E1.24146
G1 X120.228 Y104.221 E1.26572
G1 X120.223 Y104.746 E1.28318
G1 X120.195 Y105.425 E1.30578
G1 X120.138 Y106.04 E1.32632
G1 X120.051 Y106.639 E1.34646
G1 X119.959 Y107.166 E1.36425
G1 X119.893 Y107.491 E1.37528
G1 X119.783 Y107.979 E1.39192
G1 X119.742 Y108.151 E1.3978
G1 X119.356 Y109.656 E1.44947
G1 X119.169 Y110.296 E1.47165
G1 X118.942 Y110.951 E1.49471
G1 X118.711 Y111.538 E1.51569
G1 X118.506 Y112.007 E1.53271
G1 X118.234 Y112.569 E1.55348
G1 X117.936 Y113.126 E1.57449
G1 X117.651 Y113.614 E1.59329
G1 X117.257 Y114.226 E1.61749
G1 X117.134 Y114.404 E1.62469
G1 X116.766 Y114.914 E1.64561
G1 X116.314 Y115.48 E1.6697
G1 X115.9 Y115.953 E1.69061
G1 X115.552 Y116.323 E1.7075
G1 X115.113 Y116.755 E1.72799
G1 X114.852 Y116.991 E1.73969
G1 X114.317 Y117.458 E1.76331
G1 X113.902 Y117.789 E1.78097
G1 X113.336 Y118.201 E1.80425
G1 X112.868 Y118.52 E1.82309
G1 X112.087 Y118.995 E1.85349
G1 X111.375 Y119.374 E1.88032
G1 X110.724 Y119.686 E1.90433
G1 X109.998 Y119.988 E1.93048
G1 X109.469 Y120.182 E1.94922
G1 X108.769 Y120.405 E1.97366
G1 X108.461 Y120.491 E1.98429
G1 X107.917 Y120.628 E2.00295
G1 X107.372 Y120.745 E2.02149
G1 X106.493 Y120.898 E2.05117
G1 X105.667 Y120.995 E2.07883
G1 X105.39 Y121.015 E2.08807
G1 X104.757 Y121.046 E2.10914
G1 X104.23 Y121.057 E2.12668
G1 X103.696 Y121.049 E2.14444
G1 X103.398 Y121.035 E2.15436
G1 X102.754 Y120.988 E2.17584
G1 X102.106 Y120.917 E2.19752
G1 X101.389 Y120.804 E2.22166
G1 X100.822 Y120.689 E2.2409
G1 X100.27 Y120.562 E2.25974
G1 X99.459 Y120.336 E2.28774
G1 X98.868 Y120.138 E2.30848
G1 X98.264 Y119.912 E2.32992
G1 X97.787 Y119.712 E2.34713
G1 X97.293 Y119.487 E2.36518
G1 X96.6 Y119.142 E2.39093
G1 X96.157 Y118.895 E2.4078
G1 X95.555 Y118.53 E2.43121
G1 X94.856 Y118.06 E2.45923
G1 X94.293 Y117.649 E2.48241
G1 X93.852 Y117.296 E2.5012
G1 X93.486 Y116.977 E2.51735
G1 X92.785 Y116.33 E2.54908
G1 X92.385 Y115.927 E2.56796
G1 X91.971 Y115.469 E2.5885
G1 X91.544 Y114.965 E2.61047
G1 X91.147 Y114.457 E2.63191
G1 X90.953 Y114.188 E2.64294
G1 X90.556 Y113.612 E2.66621
G1 X90.219 Y113.084 E2.68705
G1 X90.036 Y112.768 E2.69919
G1 X89.62 Y111.999 E2.72827
G1 X89.276 Y111.295 E2.75433
G1 X88.939 Y110.508 E2.78281
G1 X88.7 Y109.861 E2.80575
G1 X88.531 Y109.339 E2.824
G1 X88.288 Y108.48 E2.85369
G1 X88.16 Y107.941 E2.87211
G1 X88.059 Y107.439 E2.88914
G1 X88.008 Y107.144 E2.8991
G1 X87.904 Y106.436 E2.9229
G1 X87.84 Y105.896 E2.94099
G1 X87.814 Y105.599 E2.9509
G1 X87.773 Y104.94 E2.97287
G1 X87.76 Y104.388 E2.99123
G1 X87.772 Y103.617 E3.01688
G1 X87.806 Y103.015 E3.03693
G1 X87.864 Y102.416 E3.05695
G1 X87.886 Y102.229 E3.06321
G1 X87.973 Y101.58 E3.08499
G1 X88.16 Y100.696 E3.11504
G1 X88.343 Y100.102 E3.13571
G1 X88.49 Y99.7 E3.14995
G1 X88.727 Y99.105 E3.17125
G1 X88.802 Y98.925 E3.17774
G1 X89.046 Y98.366 E3.19802
G1 X89.284 Y97.869 E3.21635
G1 X89.57 Y97.329 E3.23668
G1 X89.834 Y96.869 E3.25432
G1 X90.183 Y96.307 E3.27632
G1 X90.548 Y95.765 E3.29805
G1 X90.838 Y95.368 E3.31441
G1 X91.246 Y94.846 E3.33644
G1 X91.594 Y94.426 E3.35458
G1 X91.946 Y94.027 E3.37228
G1 X92.364 Y93.587 E3.39247
M204 S3000
M205 X10 Y10
G0 F3000 X92.651 Y93.865
M204 S1800
M205 X8 Y8
G1 F2400 X93.024 Y93.501 E3.4098
G1 X93.43 Y93.125 E3.4282
G1 X94.129 Y92.54 E3.45852
G1 X94.581 Y92.196 E3.47741
G1 X95.303 Y91.69 E3.50674
G1 X95.736 Y91.416 E3.52378
G1 X96.206 Y91.133 E3.54203
G1 X96.72 Y90.848 E3.56158
G1 X97.222 Y90.598 E3.58023
G1 X97.691 Y90.383 E3.59739
G1 X98.586 Y90.021 E3.6295
G1 X99.225 Y89.797 E3.65202
G1 X99.797 Y89.619 E3.67194
G1 X100.406 Y89.453 E3.69294
G1 X100.75 Y89.374 E3.70468
G1 X101.513 Y89.224 E3.73054
G1 X102.11 Y89.133 E3.75063
G1 X102.711 Y89.063 E3.77075
G1 X103.277 Y89.016 E3.78964
G1 X103.966 Y88.99 E3.81257
G1 X104.281 Y88.99 E3.82305
G1 X104.935 Y89.008 E3.84481
G1 X105.522 Y89.043 E3.86437
G1 X106.162 Y89.106 E3.88576
G1 X106.453 Y89.144 E3.89552
G1 X107.147 Y89.254 E3.91889
G1 X107.941 Y89.424 E3.9459
G1 X108.653 Y89.614 E3.97041
G1 X109.116 Y89.755 E3.98651
G1 X109.691 Y89.953 E4.00673
G1 X110.318 Y90.195 E4.02909
G1 X110.648 Y90.34 E4.04107
G1 X111.195 Y90.594 E4.06113
G1 X111.718 Y90.857 E4.0806
G1 X112.278 Y91.168 E4.10191
G1 X113.037 Y91.649 E4.1318
G1 X113.53 Y91.994 E4.15181
G1 X114.052 Y92.386 E4.17352
G1 X114.567 Y92.816 E4.19584
G1 X115.054 Y93.253 E4.2176
G1 X115.606 Y93.805 E4.24356
G1 X116.041 Y94.275 E4.26486
G1 X116.436 Y94.738 E4.28511
G1 X116.825 Y95.24 E4.30623
G1 X117.208 Y95.776 E4.32814
G1 X117.56 Y96.314 E4.34952
G1 X117.821 Y96.755 E4.36657
G1 X118.2 Y97.454 E4.39301
G1 X118.376 Y97.82 E4.40652
G1 X118.716 Y98.597 E4.43473
G1 X118.97 Y99.252 E4.4581
G1 X119.069 Y99.544 E4.46835
G1 X119.231 Y100.065 E4.4865
G1 X119.316 Y100.366 E4.4969
G1 X119.466 Y100.964 E4.51741
G1 X119.604 Y101.653 E4.54078
G1 X119.698 Y102.284 E4.562
G1 X119.767 Y102.884 E4.58208
G1 X119.812 Y103.501 E4.60266
G1 X119.828 Y104.23 E4.62691
G1 X119.824 Y104.732 E4.64361
G1 X119.796 Y105.396 E4.66571
G1 X119.741 Y105.985 E4.68539
G1 X119.657 Y106.57 E4.70505
G1 X119.566 Y107.091 E4.72264
G1 X119.503 Y107.403 E4.73322
G1 X119.393 Y107.891 E4.74986
G1 X119.354 Y108.051 E4.75534
G1 X118.968 Y109.556 E4.80702
G1 X118.789 Y110.172 E4.82835
G1 X118.565 Y110.816 E4.85103
G1 X118.34 Y111.389 E4.8715
G1 X118.068 Y112.001 E4.89378
G1 X117.696 Y112.733 E4.92109
G1 X117.398 Y113.257 E4.94114
G1 X117.071 Y113.784 E4.96177
G1 X116.809 Y114.17 E4.97728
G1 X116.441 Y114.68 E4.9982
G1 X116.006 Y115.225 E5.02139
G1 X115.608 Y115.68 E5.0415
G1 X115.044 Y116.266 E5.06855
G1 X114.589 Y116.69 E5.08924
G1 X114.054 Y117.157 E5.11286
G1 X113.667 Y117.466 E5.12933
G1 X113.101 Y117.878 E5.15261
G1 X112.653 Y118.182 E5.17062
G1 X111.899 Y118.642 E5.2
G1 X111.187 Y119.021 E5.22682
G1 X110.556 Y119.323 E5.25009
G1 X109.85 Y119.616 E5.27551
G1 X109.334 Y119.806 E5.2938
G1 X108.651 Y120.023 E5.31764
G1 X108.364 Y120.103 E5.32755
G1 X107.82 Y120.24 E5.34621
G1 X107.303 Y120.351 E5.36379
G1 X106.424 Y120.504 E5.39347
G1 X105.629 Y120.597 E5.42009
G1 X105.371 Y120.615 E5.42869
G1 X104.738 Y120.646 E5.44977
G1 X104.224 Y120.657 E5.46687
G1 X103.706 Y120.65 E5.4841
G1 X103.427 Y120.636 E5.49339
G1 X102.783 Y120.589 E5.51487
G1 X102.163 Y120.522 E5.53561
G1 X101.458 Y120.41 E5.55935
G1 X100.911 Y120.299 E5.57792
G1 X100.359 Y120.172 E5.59676
G1 X99.572 Y119.952 E5.62394
G1 X99 Y119.761 E5.64399
G1 X98.406 Y119.538 E5.6651
G1 X97.953 Y119.348 E5.68144
G1 X97.459 Y119.123 E5.69949
G1 X96.794 Y118.792 E5.7242
G1 X96.088 Y118.392 E5.75118
G1 X95.778 Y118.198 E5.76335
G1 X95.079 Y117.728 E5.79136
G1 X94.532 Y117.328 E5.8139
G1 X94.112 Y116.993 E5.83177
G1 X93.757 Y116.683 E5.84745
G1 X93.056 Y116.036 E5.87917
G1 X92.68 Y115.658 E5.89691
G1 X92.276 Y115.21 E5.91697
G1 X91.849 Y114.706 E5.93894
G1 X91.47 Y114.222 E5.95939
G1 X91.282 Y113.961 E5.97009
G1 X90.885 Y113.385 E5.99335
G1 X90.559 Y112.872 E6.01357
G1 X90.388 Y112.578 E6.02488
G1 X89.972 Y111.809 E6.05396
G1 X89.638 Y111.127 E6.07922
G1 X89.309 Y110.355 E6.10713
G1 X89.077 Y109.728 E6.12937
G1 X88.914 Y109.226 E6.14692
G1 X88.674 Y108.375 E6.17633
G1 X88.55 Y107.852 E6.19421
G1 X88.451 Y107.361 E6.21087
G1 X88.403 Y107.086 E6.22015
G1 X88.299 Y106.378 E6.24395
G1 X88.237 Y105.852 E6.26157
G1 X88.213 Y105.574 E6.27085
G1 X88.172 Y104.915 E6.29281
G1 X88.16 Y104.394 E6.31014
G1 X88.172 Y103.623 E6.33579
G1 X88.205 Y103.043 E6.35511
G1 X88.262 Y102.457 E6.37469
G1 X88.283 Y102.282 E6.38056
G1 X88.37 Y101.633 E6.40234
G1 X88.544 Y100.808 E6.43038
G1 X88.72 Y100.235 E6.45032
G1 X88.862 Y99.848 E6.46403
G1 X89.099 Y99.253 E6.48533
G1 X89.169 Y99.085 E6.49138
G1 X89.413 Y98.526 E6.51167
G1 X89.639 Y98.054 E6.52907
G1 X89.918 Y97.526 E6.54894
G1 X90.175 Y97.077 E6.56614
G1 X90.52 Y96.522 E6.58788
G1 X90.879 Y95.989 E6.60925
G1 X91.153 Y95.614 E6.6247
G1 X91.561 Y95.092 E6.64674
G1 X91.9 Y94.684 E6.66438
G1 X92.245 Y94.293 E6.68172
G1 X92.651 Y93.865 E6.70134
M204 S3000
M205 X10 Y10
G0 F3000 X92.939 Y94.143
M204 S1800
M205 X8 Y8
G1 F2400 X93.296 Y93.795 E6.71793
G1 X93.702 Y93.419 E6.73633
G1 X94.381 Y92.85 E6.76579
G1 X94.817 Y92.519 E6.784
G1 X95.528 Y92.021 E6.81287
G1 X95.99 Y91.729 E6.83105
G1 X96.655 Y91.338 E6.85671
G1 X97.399 Y90.957 E6.88451
G1 X98.12 Y90.635 E6.91077
G1 X98.731 Y90.393 E6.93263
G1 X99.344 Y90.179 E6.95423
G1 X99.916 Y90.001 E6.97415
G1 X100.508 Y89.84 E6.99456
G1 X100.827 Y89.767 E7.00544
G1 X101.59 Y89.617 E7.0313
G1 X102.164 Y89.529 E7.05062
G1 X102.747 Y89.461 E7.07014
G1 X103.296 Y89.416 E7.08846
G1 X103.966 Y89.39 E7.11076
G1 X104.281 Y89.39 E7.12124
G1 X104.922 Y89.408 E7.14257
G1 X105.495 Y89.442 E7.16166
G1 X106.121 Y89.504 E7.18258
G1 X106.391 Y89.539 E7.19164
G1 X107.076 Y89.647 E7.2147
G1 X107.848 Y89.813 E7.24097
G1 X108.549 Y90 E7.2651
G1 X108.986 Y90.133 E7.28029
G1 X109.561 Y90.331 E7.30052
G1 X110.16 Y90.562 E7.32187
G1 X110.48 Y90.703 E7.3335
G1 X111.027 Y90.957 E7.35356
G1 X111.536 Y91.213 E7.37251
G1 X112.073 Y91.511 E7.39294
G1 X112.816 Y91.983 E7.42221
G1 X113.3 Y92.321 E7.44185
G1 X113.81 Y92.704 E7.46306
G1 X114.305 Y93.119 E7.48455
G1 X114.777 Y93.542 E7.50563
G1 X115.32 Y94.085 E7.53117
G1 X115.739 Y94.538 E7.55169
G1 X116.123 Y94.987 E7.57134
G1 X116.502 Y95.476 E7.59192
G1 X116.874 Y95.997 E7.61321
G1 X117.218 Y96.523 E7.63411
G1 X117.475 Y96.956 E7.65086
G1 X117.846 Y97.64 E7.67674
G1 X118.01 Y97.98 E7.6893
G1 X118.35 Y98.757 E7.71751
G1 X118.595 Y99.391 E7.74011
G1 X118.687 Y99.663 E7.74966
G1 X118.849 Y100.184 E7.76781
G1 X118.928 Y100.463 E7.77746
G1 X119.078 Y101.061 E7.79796
G1 X119.211 Y101.724 E7.82045
G1 X119.301 Y102.33 E7.84083
G1 X119.383 Y103.058 E7.8652
G1 X119.412 Y103.51 E7.88026
G1 X119.428 Y104.239 E7.90451
G1 X119.408 Y105.171 E7.93552
G1 X119.345 Y105.93 E7.96085
G1 X119.263 Y106.501 E7.98004
G1 X119.173 Y107.016 E7.99742
G1 X119.113 Y107.315 E8.00757
G1 X119.003 Y107.803 E8.02421
G1 X118.967 Y107.952 E8.0293
G1 X118.581 Y109.457 E8.08098
G1 X118.409 Y110.048 E8.10145
G1 X118.189 Y110.681 E8.12374
G1 X117.968 Y111.24 E8.14373
G1 X117.708 Y111.826 E8.16506
G1 X117.342 Y112.547 E8.19195
G1 X117.052 Y113.057 E8.21146
G1 X116.739 Y113.562 E8.23122
G1 X116.485 Y113.936 E8.24626
G1 X116.117 Y114.446 E8.26718
G1 X115.698 Y114.97 E8.28949
G1 X115.315 Y115.407 E8.30882
G1 X114.76 Y115.985 E8.33547
G1 X114.326 Y116.388 E8.35517
G1 X113.791 Y116.855 E8.37879
G1 X113.431 Y117.142 E8.3941
G1 X112.865 Y117.554 E8.41739
G1 X112.438 Y117.845 E8.43457
G1 X111.711 Y118.289 E8.46291
G1 X110.999 Y118.668 E8.48973
G1 X110.388 Y118.96 E8.51226
G1 X109.701 Y119.245 E8.537
G1 X109.198 Y119.429 E8.55481
G1 X108.532 Y119.641 E8.57806
G1 X108.266 Y119.716 E8.58725
G1 X107.722 Y119.853 E8.60591
G1 X107.235 Y119.957 E8.62247
G1 X106.356 Y120.11 E8.65215
G1 X105.591 Y120.199 E8.67776
G1 X105.351 Y120.216 E8.68576
G1 X104.718 Y120.247 E8.70684
G1 X104.218 Y120.257 E8.72348
G1 X103.715 Y120.25 E8.74021
G1 X103.457 Y120.237 E8.7488
G1 X102.813 Y120.19 E8.77028
G1 X102.221 Y120.126 E8.79008
G1 X101.527 Y120.016 E8.81345
G1 X101.001 Y119.91 E8.8313
G1 X100.449 Y119.783 E8.85014
G1 X99.684 Y119.568 E8.87657
G1 X99.131 Y119.383 E8.89596
G1 X98.548 Y119.164 E8.91668
G1 X98.119 Y118.984 E8.93215
G1 X97.625 Y118.759 E8.9502
G1 X96.987 Y118.442 E8.9739
G1 X96.289 Y118.046 E9.00059
G1 X96.001 Y117.866 E9.01189
G1 X95.302 Y117.396 E9.0399
G1 X94.771 Y117.008 E9.06177
G1 X94.373 Y116.689 E9.07874
G1 X94.028 Y116.389 E9.09395
G1 X93.327 Y115.742 E9.12567
G1 X92.71 Y115.098 E9.15534
G1 X92.581 Y114.951 E9.16184
G1 X92.154 Y114.447 E9.18381
G1 X91.793 Y113.986 E9.20329
G1 X91.611 Y113.734 E9.21363
G1 X91.214 Y113.158 E9.23689
G1 X90.898 Y112.661 E9.25648
G1 X90.739 Y112.387 E9.26702
G1 X90.323 Y111.618 E9.2961
G1 X90.001 Y110.958 E9.32052
G1 X89.678 Y110.202 E9.34787
G1 X89.454 Y109.596 E9.36936
G1 X89.298 Y109.112 E9.38627
G1 X89.06 Y108.27 E9.41537
G1 X88.94 Y107.763 E9.4327
G1 X88.799 Y107.028 E9.45759
G1 X88.695 Y106.32 E9.48139
G1 X88.635 Y105.807 E9.49857
G1 X88.612 Y105.549 E9.50719
G1 X88.571 Y104.89 E9.52915
G1 X88.56 Y104.4 E9.54545
G1 X88.572 Y103.629 E9.5711
G1 X88.604 Y103.072 E9.58965
G1 X88.66 Y102.498 E9.60883
G1 X88.679 Y102.335 E9.61429
G1 X88.766 Y101.686 E9.63607
G1 X88.928 Y100.92 E9.66211
G1 X89.097 Y100.368 E9.68131
G1 X89.233 Y99.996 E9.69449
G1 X89.47 Y99.401 E9.71579
G1 X89.535 Y99.245 E9.72141
G1 X89.779 Y98.686 E9.7417
G1 X90.187 Y97.868 E9.7721
G1 X90.516 Y97.286 E9.79434
G1 X90.857 Y96.737 E9.81583
G1 X91.21 Y96.214 E9.83682
G1 X91.468 Y95.861 E9.85136
G1 X91.876 Y95.339 E9.8734
G1 X92.206 Y94.941 E9.89059
G1 X92.544 Y94.559 E9.90756
G1 X92.939 Y94.143 E9.92664
M204 S3000
M205 X10 Y10
G1 F2400 E3.92664
;MESH:dyson_vacuum_adapter.stl
G0 F3000 X94.604 Y99.283
G0 X95.51 Y99.878
G0 X95.177 Y103.76
M204 S1800
M205 X8 Y8
;TYPE:WALL-INNER
G1 F2400 E9.92664
G1 F2100 X95.159 Y103.952 E9.93305
G1 X95.164 Y103.759 E9.93318
G1 X95.203 Y103.23 E9.95082
G1 X95.28 Y102.679 E9.96933
G1 X95.415 Y102.276 E9.98346
G1 X95.602 Y101.801 E10.00044
G1 X95.744 Y101.496 E10.01163
G1 X95.585 Y101.939 E10.01619
G1 X95.409 Y102.536 E10.03067
G1 X95.274 Y103.145 E10.0419
G1 X95.177 Y103.76 E10.0464
M204 S3000
M205 X10 Y10
G0 F3000 X96.687 Y108.289
G0 X97.304 Y109.501
G0 X98.948 Y112.321
M204 S1800
M205 X8 Y8
G1 F2100 X99.417 Y112.689 E10.06623
G1 X98.879 Y112.343 E10.06837
G1 X98.458 Y112.026 E10.0859
G1 X98.068 Y111.699 E10.10283
G1 X97.716 Y111.374 E10.11876
G1 X97.338 Y110.983 E10.13685
G1 X97.031 Y110.628 E10.15246
G1 X96.696 Y110.201 E10.17051
G1 X96.313 Y109.644 E10.193
G1 X96.034 Y109.176 E10.21112
