;FLAVOR:Marlin
;TIME:279
;Filament used: 0.103854m
;Layer height: 0.2
;MINX:90.399
;MINY:93.429
;MINZ:0.2
;MAXX:120.543
;MAXY:116.564
;MAXZ:9.4
;Generated with Cura_SteamEngine 4.12.1
M140 S60
M105
M190 S60
M104 S205
M105
M109 S205
M82 ;absolute extrusion mode
G21 ;metric values
G90 ;absolute positioning
M82 ;set extruder to absolute mode
M107 ;start with the fan off
G28 X0 Y0 ;move X/Y to min endstops
G28 Z0 ;move Z to min endstops
G1 Z15.0 F100 ;move the platform down 15mm
G92 E0 ;zero the extruded length
G1 F200 E3 ;extrude 3mm of feed stock
G92 E0 ;zero the extruded length again
G1 F100
G0 Y20 F100
M117 Printing...
G5
G92 E0
G92 E0
G1 F2400 E-6
;LAYER_COUNT:49
;LAYER:0
M107
M204 S3000
M205 X10 Y10
G1 F600 Z0.275
G0 F3000 X92.322 Y99.77 Z0.275
M204 S1800
M205 X8 Y8
;TYPE:SKIRT
G1 F600 Z0.2
G1 F2400 E0
G1 X92.852 Y99.357 E0.01453
G1 X93.426 Y99.009 E0.02904
G1 X94.322 Y98.632 E0.05005
G1 X94.888 Y98.449 E0.06291
G1 X96.586 Y97.927 E0.10132
G1 X99.105 Y97.075 E0.15881
G1 X101.583 Y96.159 E0.21592
G1 X105.263 Y94.647 E0.30193
G1 X106.22 Y94.231 E0.32449
G1 X106.837 Y94.004 E0.33871
G1 X107.464 Y93.817 E0.35285
G1 X108.127 Y93.66 E0.36758
G1 X108.621 Y93.574 E0.37842
G1 X109.016 Y93.526 E0.38702
G1 X109.832 Y93.455 E0.40473
G1 X110.269 Y93.429 E0.4142
G1 X110.881 Y93.431 E0.42743
G1 X111.751 Y93.509 E0.44631
G1 X112.208 Y93.576 E0.4563
G1 X112.772 Y93.683 E0.46871
G1 X113.19 Y93.775 E0.47796
G1 X113.777 Y93.946 E0.49118
G1 X114.372 Y94.154 E0.50481
G1 X114.893 Y94.356 E0.51689
G1 X115.501 Y94.645 E0.53144
G1 X116.14 Y94.996 E0.5472
G1 X116.412 Y95.154 E0.554
G1 X116.916 Y95.495 E0.56716
G1 X117.424 Y95.883 E0.58098
G1 X117.784 Y96.173 E0.59097
G1 X118.363 Y96.71 E0.60804
G1 X118.825 Y97.203 E0.62265
G1 X119.126 Y97.539 E0.6324
G1 X119.54 Y98.068 E0.64693
G1 X119.889 Y98.643 E0.66147
G1 X120.167 Y99.255 E0.676
G1 X120.37 Y99.895 E0.69051
G1 X120.496 Y100.555 E0.70504
G1 X120.543 Y101.357 E0.72241
G1 X120.537 Y101.729 E0.73045
G1 X120.481 Y103.91 E0.77762
G1 X120.488 Y106.583 E0.83541
G1 X120.538 Y108.361 E0.87386
G1 X120.541 Y108.699 E0.88117
G1 X120.504 Y109.37 E0.8957
G1 X120.388 Y110.031 E0.91021
G1 X120.194 Y110.675 E0.92475
G1 X119.925 Y111.291 E0.93928
G1 X119.585 Y111.87 E0.95379
G1 X119.127 Y112.465 E0.97003
G1 X118.623 Y113.022 E0.98627
G1 X118.34 Y113.32 E0.99515
G1 X117.878 Y113.753 E1.00884
G1 X117.433 Y114.112 E1.0212
G1 X117.311 Y114.207 E1.02454
G1 X116.881 Y114.529 E1.03616
G1 X116.216 Y114.957 E1.05326
G1 X115.563 Y115.316 E1.06937
G1 X114.832 Y115.659 E1.08682
G1 X114.213 Y115.901 E1.10119
G1 X113.771 Y116.059 E1.11134
G1 X113.154 Y116.235 E1.12521
G1 X112.433 Y116.386 E1.14113
G1 X111.654 Y116.503 E1.15817
G1 X111.11 Y116.545 E1.16996
G1 X110.653 Y116.564 E1.17985
G1 X110.141 Y116.562 E1.19092
G1 X109.551 Y116.533 E1.20369
G1 X109 Y116.484 E1.21565
G1 X108.354 Y116.384 E1.22978
G1 X107.501 Y116.197 E1.24866
G1 X106.595 Y115.911 E1.2692
G1 X106.156 Y115.744 E1.27935
G1 X104.815 Y115.169 E1.3109
G1 X104.417 Y114.996 E1.32028
G1 X101.921 Y113.977 E1.37856
G1 X99.438 Y113.048 E1.43588
G1 X96.904 Y112.179 E1.49379
G1 X95.115 Y111.612 E1.53437
G1 X94.411 Y111.397 E1.55028
G1 X93.781 Y111.163 E1.56481
G1 X93.183 Y110.856 E1.57934
G1 X92.626 Y110.48 E1.59387
G1 X92.118 Y110.041 E1.60839
G1 X91.665 Y109.544 E1.62292
G1 X91.274 Y108.998 E1.63744
G1 X90.951 Y108.408 E1.65198
G1 X90.701 Y107.785 E1.6665
G1 X90.526 Y107.136 E1.68103
G1 X90.412 Y106.168 E1.7021
G1 X90.399 Y105.67 E1.71287
G1 X90.4 Y104.589 E1.73624
G1 X90.41 Y103.923 E1.75064
G1 X90.46 Y103.253 E1.76517
G1 X90.589 Y102.594 E1.77968
G1 X90.796 Y101.954 E1.79422
G1 X91.077 Y101.344 E1.80874
G1 X91.428 Y100.771 E1.82327
G1 X91.845 Y100.244 E1.8378
G1 X92.322 Y99.77 E1.85234
M204 S3000
M205 X10 Y10
G0 F3000 X92.575 Y99.895
M204 S1800
M205 X8 Y8
G1 F2400 X93.101 Y99.502 E1.86653
G1 X93.67 Y99.176 E1.88071
G1 X94.402 Y98.879 E1.89779
G1 X94.965 Y98.698 E1.91057
G1 X96.632 Y98.186 E1.94827
G1 X99.206 Y97.315 E2.00702
G1 X101.666 Y96.406 E2.06372
G1 X105.369 Y94.884 E2.15027
G1 X106.324 Y94.469 E2.17278
G1 X106.913 Y94.253 E2.18635
G1 X107.532 Y94.069 E2.20031
G1 X108.173 Y93.916 E2.21455
G1 X108.734 Y93.821 E2.22686
G1 X109.039 Y93.785 E2.2335
G1 X109.855 Y93.714 E2.2512
G1 X110.282 Y93.689 E2.26045
G1 X110.866 Y93.691 E2.27308
G1 X111.724 Y93.767 E2.2917
G1 X112.16 Y93.831 E2.30122
G1 X112.724 Y93.938 E2.31364
G1 X113.131 Y94.028 E2.32265
G1 X113.692 Y94.191 E2.33528
G1 X114.287 Y94.399 E2.3489
G1 X114.795 Y94.598 E2.3607
G1 X115.376 Y94.873 E2.3746
G1 X116.015 Y95.224 E2.39036
G1 X116.278 Y95.377 E2.39693
G1 X116.759 Y95.702 E2.40948
G1 X117.261 Y96.086 E2.42315
G1 X117.621 Y96.376 E2.43314
G1 X118.173 Y96.887 E2.4494
G1 X118.635 Y97.38 E2.46401
G1 X118.931 Y97.712 E2.47363
G1 X119.335 Y98.229 E2.48781
G1 X119.673 Y98.791 E2.50199
G1 X119.94 Y99.391 E2.51619
G1 X120.133 Y100.018 E2.53037
G1 X120.248 Y100.665 E2.54458
G1 X120.283 Y101.353 E2.55947
G1 X120.277 Y101.722 E2.56745
G1 X120.221 Y103.903 E2.61462
G1 X120.228 Y106.59 E2.67271
G1 X120.278 Y108.368 E2.71116
G1 X120.281 Y108.7 E2.71834
G1 X120.244 Y109.355 E2.73252
G1 X120.128 Y110.001 E2.74671
G1 X119.934 Y110.628 E2.7609
G1 X119.666 Y111.227 E2.77509
G1 X119.326 Y111.789 E2.78929
G1 X118.932 Y112.293 E2.80312
G1 X118.431 Y112.846 E2.81925
G1 X118.152 Y113.141 E2.82803
G1 X117.711 Y113.554 E2.84109
G1 X117.272 Y113.908 E2.85328
G1 X117.155 Y113.998 E2.85647
G1 X116.725 Y114.32 E2.86809
G1 X116.091 Y114.729 E2.8844
G1 X115.438 Y115.088 E2.90051
G1 X114.738 Y115.417 E2.91723
G1 X114.119 Y115.659 E2.9316
G1 X113.685 Y115.814 E2.94156
G1 X113.097 Y115.981 E2.95478
G1 X112.381 Y116.131 E2.97059
G1 X111.632 Y116.244 E2.98697
G1 X111.099 Y116.285 E2.99852
G1 X110.153 Y116.303 E3.01898
G1 X109.563 Y116.274 E3.03175
G1 X109.028 Y116.225 E3.04337
G1 X108.404 Y116.128 E3.05702
G1 X107.572 Y115.946 E3.07543
G1 X106.678 Y115.664 E3.0957
G1 X106.258 Y115.505 E3.10541
G1 X104.919 Y114.931 E3.1369
G1 X104.501 Y114.749 E3.14676
G1 X102.008 Y113.732 E3.20497
G1 X99.542 Y112.809 E3.26189
G1 X96.972 Y111.928 E3.32063
G1 X95.251 Y111.382 E3.35966
G1 X94.487 Y111.149 E3.37693
G1 X93.872 Y110.919 E3.39112
G1 X93.289 Y110.617 E3.40532
G1 X92.748 Y110.246 E3.4195
G1 X92.255 Y109.812 E3.4337
G1 X91.819 Y109.321 E3.44789
G1 X91.446 Y108.781 E3.46208
G1 X91.142 Y108.2 E3.47626
G1 X90.91 Y107.586 E3.49045
G1 X90.754 Y106.948 E3.50465
G1 X90.672 Y106.16 E3.52178
G1 X90.659 Y105.67 E3.53237
G1 X90.66 Y104.593 E3.55566
G1 X90.67 Y103.927 E3.57006
G1 X90.719 Y103.273 E3.58424
G1 X90.848 Y102.629 E3.59844
G1 X91.055 Y102.006 E3.61263
G1 X91.335 Y101.413 E3.62681
G1 X91.686 Y100.858 E3.641
G1 X92.101 Y100.349 E3.6552
G1 X92.575 Y99.895 E3.66939
M204 S3000
M205 X10 Y10
G0 F3000 X92.827 Y100.024
M204 S1800
M205 X8 Y8
G1 F2400 X93.349 Y99.652 E3.68325
G1 X93.913 Y99.349 E3.69709
G1 X94.482 Y99.126 E3.7103
G1 X95.041 Y98.946 E3.723
G1 X96.73 Y98.427 E3.7612
G1 X99.266 Y97.569 E3.81908
G1 X101.797 Y96.634 E3.87741
G1 X105.476 Y95.122 E3.9634
G1 X106.428 Y94.708 E3.98584
G1 X106.988 Y94.502 E3.99874
G1 X107.599 Y94.32 E4.01253
G1 X108.219 Y94.172 E4.02631
G1 X108.771 Y94.078 E4.03841
G1 X109.061 Y94.044 E4.04472
G1 X109.877 Y93.973 E4.06243
G1 X110.295 Y93.949 E4.07148
G1 X110.851 Y93.95 E4.0835
G1 X111.696 Y94.026 E4.10185
G1 X112.111 Y94.087 E4.11091
G1 X112.675 Y94.194 E4.12332
G1 X113.072 Y94.282 E4.13212
G1 X113.606 Y94.436 E4.14413
G1 X114.201 Y94.644 E4.15776
G1 X114.698 Y94.839 E4.1693
G1 X115.251 Y95.101 E4.18253
G1 X115.89 Y95.452 E4.19829
G1 X116.144 Y95.6 E4.20465
G1 X116.602 Y95.909 E4.21659
G1 X117.098 Y96.288 E4.23009
G1 X117.458 Y96.578 E4.24008
G1 X117.983 Y97.065 E4.25556
G1 X118.445 Y97.558 E4.27017
G1 X118.736 Y97.884 E4.27961
G1 X119.129 Y98.389 E4.29345
G1 X119.457 Y98.939 E4.30729
G1 X119.713 Y99.526 E4.32114
G1 X119.894 Y100.14 E4.33498
G1 X119.998 Y100.772 E4.34882
G1 X120.023 Y101.35 E4.36133
G1 X120.017 Y101.715 E4.36922
G1 X119.961 Y103.897 E4.41641
G1 X119.968 Y106.598 E4.47481
G1 X120.02 Y108.495 E4.51583
G1 X120.021 Y108.701 E4.52029
G1 X119.984 Y109.34 E4.53412
G1 X119.868 Y109.97 E4.54797
G1 X119.674 Y110.58 E4.56181
G1 X119.406 Y111.162 E4.57566
G1 X119.067 Y111.705 E4.5895
G1 X118.737 Y112.121 E4.60098
G1 X118.24 Y112.67 E4.61699
G1 X117.963 Y112.962 E4.62569
G1 X117.544 Y113.354 E4.6381
G1 X117.11 Y113.704 E4.65015
G1 X116.999 Y113.79 E4.65319
G1 X116.569 Y114.112 E4.6648
G1 X115.965 Y114.501 E4.68033
G1 X115.312 Y114.86 E4.69644
G1 X114.643 Y115.175 E4.71243
G1 X114.024 Y115.417 E4.7268
G1 X113.6 Y115.568 E4.73653
G1 X113.04 Y115.728 E4.74912
G1 X112.329 Y115.876 E4.76482
G1 X111.609 Y115.985 E4.78056
G1 X111.088 Y116.026 E4.79186
G1 X110.166 Y116.043 E4.8118
G1 X109.576 Y116.014 E4.82457
G1 X109.056 Y115.967 E4.83586
G1 X108.454 Y115.873 E4.84903
G1 X107.643 Y115.696 E4.86697
G1 X106.76 Y115.418 E4.88699
G1 X106.361 Y115.266 E4.89622
G1 X105.023 Y114.692 E4.92769
G1 X104.658 Y114.533 E4.9363
G1 X102.095 Y113.487 E4.99615
G1 X99.614 Y112.559 E5.05341
G1 X97.052 Y111.681 E5.11196
G1 X95.291 Y111.122 E5.15191
G1 X94.563 Y110.9 E5.16836
G1 X93.963 Y110.675 E5.18222
G1 X93.396 Y110.378 E5.19605
G1 X92.87 Y110.012 E5.20991
G1 X92.395 Y109.583 E5.22374
G1 X91.976 Y109.099 E5.23758
G1 X91.621 Y108.566 E5.25143
G1 X91.335 Y107.993 E5.26527
G1 X91.123 Y107.389 E5.27911
G1 X90.987 Y106.763 E5.29296
G1 X90.931 Y106.152 E5.30623
G1 X90.919 Y105.67 E5.31665
G1 X90.92 Y104.597 E5.33985
G1 X90.93 Y103.931 E5.35425
G1 X90.979 Y103.293 E5.36808
G1 X91.108 Y102.665 E5.38194
G1 X91.314 Y102.059 E5.39578
G1 X91.593 Y101.483 E5.40962
G1 X91.943 Y100.946 E5.42347
G1 X92.356 Y100.457 E5.43731
G1 X92.827 Y100.024 E5.45114
M204 S3000
M205 X10 Y10
G0 F3000 X105.038 Y103.24
M204 S1800
M205 X8 Y8
;TYPE:SUPPORT
G1 F1500 X105.268 Y102.386 E5.47026
G1 X106.243 Y101.081 E5.50548
G1 X106.779 Y100.525 E5.52218
G1 X107.628 Y99.926 E5.54464
G1 X108.544 Y99.512 E5.56637
G1 X109.17 Y99.334 E5.58044
G1 X109.67 Y99.252 E5.5914
G1 X110.557 Y99.192 E5.61062
G1 X111.089 Y99.24 E5.62216
G1 X111.103 Y99.257 E5.62264
G1 X111.842 Y99.383 E5.63885
G1 X111.856 Y99.398 E5.63929
G1 X112.486 Y99.607 E5.65364
G1 X112.838 Y99.754 E5.66189
G1 X113.441 Y100.1 E5.67692
G1 X114.145 Y100.65 E5.69623
G1 X114.192 Y100.748 E5.69858
G1 X114.748 Y101.3 E5.71552
G1 X113.95 Y101.3 E5.73277
G1 X113.945 Y101.298 E5.73289
G1 X113.172 Y100.668 E5.75445
G1 X112.81 Y100.435 E5.76375
G1 X112.22 Y100.166 E5.77777
G1 X111.925 Y100.048 E5.78464
G1 X111.248 Y99.882 E5.79971
G1 X110.377 Y99.802 E5.81862
G1 X109.708 Y99.844 E5.83311
G1 X108.941 Y100.03 E5.85017
G1 X108.266 Y100.296 E5.86586
G1 X107.491 Y100.765 E5.88544
G1 X106.766 Y101.408 E5.90639
G1 X106.176 Y102.197 E5.92769
G1 X105.776 Y102.905 E5.94527
G1 X105.68 Y103.332 E5.95473
G1 X105.588 Y103.24 E5.95755
G1 X105.038 Y103.24 E5.96944
M204 S3000
M205 X10 Y10
G0 F3000 X105.285 Y102.817
M204 S1800
M205 X8 Y8
G1 F1500 X105.619 Y103.01 E5.97778
M204 S3000
M205 X10 Y10
G0 F3000 X109.2 Y99.834
M204 S1800
M205 X8 Y8
G1 F1500 X109.2 Y99.46 E5.98586
M204 S3000
M205 X10 Y10
G0 F3000 X109.727 Y99.377
M204 S1800
M205 X8 Y8
G1 F1500 X110.249 Y99.678 E5.99889
M204 S3000
M205 X10 Y10
G0 F3000 X105.68 Y106.669
M204 S1800
M205 X8 Y8
G1 F1500 X105.761 Y107.068 E6.00769
G1 X106.177 Y107.798 E6.02586
G1 X106.762 Y108.587 E6.04709
G1 X107.445 Y109.215 E6.06715
G1 X108.045 Y109.577 E6.0823
G1 X108.678 Y109.87 E6.09738
G1 X108.956 Y109.976 E6.10381
G1 X109.509 Y110.112 E6.11612
G1 X109.803 Y110.16 E6.12256
G1 X110.409 Y110.2 E6.13569
G1 X111.209 Y110.124 E6.15307
G1 X112.014 Y109.927 E6.17098
G1 X112.871 Y109.526 E6.19144
G1 X113.128 Y109.368 E6.19796
G1 X113.859 Y108.788 E6.21813
G1 X113.947 Y108.7 E6.22082
G1 X114.749 Y108.7 E6.23816
G1 X114.176 Y109.295 E6.25602
G1 X114.152 Y109.347 E6.25726
G1 X113.413 Y109.917 E6.27744
G1 X112.649 Y110.319 E6.2961
G1 X112.64 Y110.328 E6.29638
G1 X111.891 Y110.604 E6.31363
G1 X111.097 Y110.757 E6.33111
G1 X110.326 Y110.802 E6.34781
G1 X109.715 Y110.76 E6.36105
G1 X109.083 Y110.647 E6.37493
G1 X108.433 Y110.442 E6.38967
G1 X107.628 Y110.07 E6.40884
G1 X106.942 Y109.58 E6.42706
G1 X106.308 Y108.997 E6.44568
G1 X105.277 Y107.633 E6.48265
G1 X105.04 Y106.76 E6.5022
G1 X105.589 Y106.76 E6.51407
G1 X105.68 Y106.669 E6.51686
M204 S3000
M205 X10 Y10
G0 F3000 X105.645 Y107.129
M204 S1800
M205 X8 Y8
G1 F1500 X105.324 Y107.315 E6.52488
M204 S3000
M205 X10 Y10
G0 F3000 X109.2 Y110.17
M204 S1800
M205 X8 Y8
G1 F1500 X109.2 Y110.535 E6.53277
M204 S3000
M205 X10 Y10
G0 F3000 X109.956 Y110.645
M204 S1800
M205 X8 Y8
G1 F1500 X110.52 Y110.319 E6.54685
M204 S3000
M205 X10 Y10
G1 F2400 E0.54685
;MESH:sharkfin.stl
G0 F3000 X105.985 Y105.595
G0 X104.987 Y105.596
G0 X104.481 Y105.09
M204 S1800
M205 X8 Y8
;TYPE:WALL-INNER
G1 F2400 E6.54685
G1 F1500 X96.959 Y105.09 E6.70947
G1 X96.959 Y104.91 E6.71336
G1 X104.48 Y104.91 E6.82592
G1 X104.481 Y105.09 E6.82982
M204 S3000
M205 X10 Y10
G0 F3000 X104.741 Y105.35
M204 S1800
M205 X8 Y8
G1 F1500 X96.699 Y105.35 E7.00368
G1 X96.699 Y104.65 E7.01881
G1 X104.74 Y104.65 E7.19265
G1 X104.741 Y105.35 E7.20778
M204 S3000
M205 X10 Y10
G0 F3000 X105.001 Y105.61
M204 S1800
M205 X8 Y8
G1 F1500 X96.439 Y105.61 E7.39289
G1 X96.439 Y104.39 E7.41926
G1 X105 Y104.39 E7.60434
G1 X105.001 Y105.61 E7.63072
M204 S3000
M205 X10 Y10
G0 F3000 X105.191 Y105.8
M204 S1800
M205 X8 Y8
;TYPE:WALL-OUTER
G1 F1500 X96.249 Y105.8 E7.82403
G1 X96.249 Y104.2 E7.85863
G1 X105.19 Y104.2 E8.05192
G1 X105.191 Y105.8 E8.08651
M204 S3000
M205 X10 Y10
G0 F3000 X104.991 Y105.8
G0 X104.74 Y105.349
G1 F2400 E2.08651
;MESH:NONMESH
G0 F600 X104.74 Y105.349 Z0.4
G0 F3000 X104.986 Y104.404
G0 X104.986 Y103.405
G0 X106.246 Y101.079
;TIME_ELAPSED:17.494577
;LAYER:1
M106 S127.5
M204 S1800
M205 X8 Y8
;TYPE:SUPPORT
G1 F2400 E8.08651
G1 F1422.8 X106.779 Y100.525 E8.10313
G1 X107.631 Y99.924 E8.12567
G1 X108.539 Y99.514 E8.14721
G1 X109.173 Y99.333 E8.16147
G1 X109.663 Y99.253 E8.1722
G1 X110.56 Y99.192 E8.19164
G1 X111.085 Y99.24 E8.20303
G1 X111.098 Y99.256 E8.20348
G1 X111.843 Y99.383 E8.21982
G1 X111.857 Y99.398 E8.22026
G1 X112.486 Y99.607 E8.23459
G1 X112.842 Y99.755 E8.24293
G1 X113.437 Y100.098 E8.25777
G1 X114.143 Y100.649 E8.27714
G1 X114.19 Y100.747 E8.27949
G1 X114.749 Y101.3 E8.29648
G1 X113.948 Y101.3 E8.3138
G1 X113.174 Y100.669 E8.33539
G1 X112.808 Y100.434 E8.34479
G1 X112.208 Y100.161 E8.35904
G1 X111.921 Y100.048 E8.36571
G1 X111.245 Y99.882 E8.38076
G1 X110.378 Y99.802 E8.39959
G1 X109.706 Y99.844 E8.41414
G1 X108.945 Y100.029 E8.43107
G1 X108.27 Y100.294 E8.44675
G1 X107.487 Y100.767 E8.46653
G1 X106.766 Y101.408 E8.48738
G1 X106.179 Y102.194 E8.50859
G1 X105.772 Y102.91 E8.5264
G1 X105.668 Y103.373 E8.53666
G1 X105.535 Y103.24 E8.54072
G1 X105.038 Y103.24 E8.55147
G1 X105.267 Y102.387 E8.57056
G1 X106.246 Y101.079 E8.60588
M204 S3000
M205 X10 Y10
G0 F4500 X105.285 Y102.817
M204 S1800
M205 X8 Y8
G1 F1422.8 X105.616 Y103.008 E8.61414
M204 S3000
M205 X10 Y10
G0 F4500 X109.2 Y99.834
M204 S1800
M205 X8 Y8
G1 F1422.8 X109.2 Y99.46 E8.62223
M204 S3000
M205 X10 Y10
G0 F4500 X109.729 Y99.378
M204 S1800
M205 X8 Y8
G1 F1422.8 X110.249 Y99.678 E8.63521
M204 S3000
M205 X10 Y10
G0 F4500 X105.667 Y106.629
M204 S1800
M205 X8 Y8
G1 F1422.8 X105.767 Y107.078 E8.64515
G1 X106.176 Y107.797 E8.66304
G1 X106.76 Y108.584 E8.68422
G1 X107.447 Y109.216 E8.7044
G1 X108.042 Y109.575 E8.71943
G1 X108.688 Y109.874 E8.73482
G1 X108.948 Y109.975 E8.74085
G1 X109.501 Y110.11 E8.75315
G1 X109.802 Y110.161 E8.75975
G1 X110.411 Y110.2 E8.77295
G1 X111.214 Y110.124 E8.79038
G1 X112.014 Y109.928 E8.80819
G1 X112.856 Y109.532 E8.82831
G1 X113.117 Y109.375 E8.83489
G1 X113.859 Y108.788 E8.85535
G1 X113.947 Y108.7 E8.85804
G1 X114.749 Y108.7 E8.87538
G1 X114.177 Y109.294 E8.8932
G1 X114.153 Y109.346 E8.89444
G1 X113.411 Y109.918 E8.9147
G1 X112.649 Y110.319 E8.93331
G1 X112.64 Y110.328 E8.93359
G1 X111.891 Y110.604 E8.95084
G1 X111.095 Y110.759 E8.96838
G1 X110.322 Y110.802 E8.98511
G1 X109.717 Y110.761 E8.99822
G1 X109.088 Y110.648 E9.01204
G1 X108.431 Y110.441 E9.02693
G1 X107.627 Y110.07 E9.04607
G1 X106.943 Y109.581 E9.06425
