;FLAVOR:Marlin
;TIME:273
;Filament used: 0.141292m
;Layer height: 0.2
;MINX:91.916
;MINY:94.712
;MINZ:0.2
;MAXX:118.748
;MAXY:115.301
;MAXZ:9.4
;Generated with Cura_SteamEngine 4.12.1
M140 S60
M105
M190 S60
M104 S205
M105
M109 S205
M82 ;absolute extrusion mode
G21 ;metric values
G90 ;absolute positioning
M82 ;set extruder to absolute mode
M107 ;start with the fan off
G28 X0 Y0 ;move X/Y to min endstops
G28 Z0 ;move Z to min endstops
G1 Z15.0 F100 ;move the platform down 15mm
G92 E0 ;zero the extruded length
G1 F200 E3 ;extrude 3mm of feed stock
G92 E0 ;zero the extruded length again
G1 F100
G0 Y20 F100
M117 Printing...
G5
G92 E0
G92 E0
G1 F2400 E-6
;LAYER_COUNT:49
;LAYER:0
M107
M204 S3000
M205 X10 Y10
G1 F600 Z0.275
G0 F3000 X93.147 Y101.313 Z0.275
M204 S1800
M205 X8 Y8
;TYPE:SKIRT
G1 F600 Z0.2
G1 F2400 E0
G1 X93.564 Y100.953 E0.01832
G1 X94.028 Y100.656 E0.03665
G1 X94.531 Y100.43 E0.05499
G1 X95.061 Y100.279 E0.07332
G1 X95.834 Y100.2 E0.09916
G1 X102.093 Y100.2 E0.30734
G1 X102.108 Y99.728 E0.32304
G1 X102.204 Y99.185 E0.34138
G1 X102.377 Y98.662 E0.3597
G1 X102.624 Y98.17 E0.37802
G1 X102.94 Y97.718 E0.39636
G1 X103.318 Y97.317 E0.41469
G1 X103.711 Y97.001 E0.43146
G1 X104.737 Y96.284 E0.47309
G1 X105.137 Y96.04 E0.48868
G1 X105.808 Y95.685 E0.51392
G1 X106.22 Y95.498 E0.52897
G1 X106.872 Y95.247 E0.55221
G1 X107.332 Y95.102 E0.56825
G1 X108.29 Y94.867 E0.60106
G1 X109.059 Y94.76 E0.62688
G1 X109.163 Y94.756 E0.63034
G1 X109.961 Y94.712 E0.65693
G1 X110.403 Y94.713 E0.67163
G1 X111.209 Y94.762 E0.69848
G1 X111.755 Y94.835 E0.71681
G1 X111.835 Y94.858 E0.71957
G1 X112.481 Y94.982 E0.74145
G1 X113.048 Y95.137 E0.761
G1 X113.856 Y95.427 E0.78956
G1 X114.321 Y95.63 E0.80643
G1 X115.081 Y96.024 E0.8349
G1 X115.55 Y96.313 E0.85323
G1 X115.599 Y96.354 E0.85535
G1 X116.314 Y96.858 E0.88445
G1 X116.74 Y97.208 E0.90279
G1 X117.314 Y97.773 E0.92957
G1 X117.728 Y98.205 E0.94947
G1 X118.069 Y98.637 E0.96778
G1 X118.344 Y99.114 E0.98609
G1 X118.551 Y99.634 E1.00471
G1 X118.687 Y100.168 E1.02304
G1 X118.746 Y100.822 E1.04488
G1 X118.748 Y101.368 E1.06304
G1 X118.71 Y101.918 E1.08137
G1 X118.593 Y102.456 E1.09969
G1 X118.399 Y102.972 E1.11802
G1 X118.133 Y103.454 E1.13633
G1 X117.646 Y104.058 E1.16214
G1 X117.529 Y104.176 E1.16766
G1 X117.114 Y104.538 E1.18598
G1 X116.651 Y104.836 E1.20429
G1 X116.289 Y105 E1.21751
G1 X116.433 Y105.055 E1.22264
G1 X116.914 Y105.323 E1.24095
G1 X117.517 Y105.813 E1.2668
G1 X117.634 Y105.93 E1.2723
G1 X117.994 Y106.347 E1.29062
G1 X118.291 Y106.811 E1.30894
G1 X118.517 Y107.314 E1.32729
G1 X118.668 Y107.844 E1.34562
G1 X118.747 Y108.617 E1.37146
G1 X118.747 Y109.172 E1.38992
G1 X118.707 Y109.722 E1.40826
G1 X118.588 Y110.26 E1.42659
G1 X118.402 Y110.756 E1.44421
G1 X118.146 Y111.244 E1.46253
G1 X117.822 Y111.69 E1.48087
G1 X117.612 Y111.92 E1.49123
G1 X117.101 Y112.434 E1.51533
G1 X116.779 Y112.756 E1.53048
G1 X116.306 Y113.148 E1.55091
G1 X115.733 Y113.55 E1.57419
G1 X115.324 Y113.842 E1.59091
G1 X115.066 Y113.985 E1.60072
G1 X114.481 Y114.282 E1.62254
G1 X114.284 Y114.382 E1.62989
G1 X113.694 Y114.639 E1.65129
G1 X113.177 Y114.802 E1.66932
G1 X112.464 Y115.021 E1.69413
G1 X111.856 Y115.135 E1.7147
G1 X111.745 Y115.167 E1.71855
G1 X111.202 Y115.239 E1.73677
G1 X110.604 Y115.275 E1.75669
G1 X109.948 Y115.301 E1.77853
G1 X109.218 Y115.256 E1.80285
G1 X108.616 Y115.179 E1.82304
G1 X108.505 Y115.16 E1.82678
G1 X107.508 Y114.974 E1.86052
G1 X106.975 Y114.833 E1.87885
G1 X106.647 Y114.704 E1.89058
G1 X105.677 Y114.268 E1.92595
G1 X105.253 Y114.044 E1.9419
G1 X104.571 Y113.627 E1.96849
G1 X104.173 Y113.347 E1.98467
G1 X103.542 Y112.84 E2.01159
G1 X103.138 Y112.465 E2.02993
G1 X102.794 Y112.035 E2.04824
G1 X102.515 Y111.56 E2.06656
G1 X102.307 Y111.05 E2.08488
G1 X102.176 Y110.515 E2.1032
G1 X102.123 Y109.966 E2.12155
G1 X102.131 Y109.8 E2.12708
G1 X95.833 Y109.8 E2.33655
G1 X95.283 Y109.76 E2.35489
G1 X94.745 Y109.641 E2.37322
G1 X94.23 Y109.445 E2.39154
G1 X93.749 Y109.177 E2.40986
G1 X93.146 Y108.687 E2.4357
G1 X93.029 Y108.57 E2.4412
G1 X92.669 Y108.153 E2.45953
G1 X92.372 Y107.689 E2.47785
G1 X92.146 Y107.186 E2.49619
G1 X91.995 Y106.656 E2.51452
G1 X91.916 Y105.881 E2.54043
G1 X91.917 Y104.115 E2.59917
G1 X91.957 Y103.565 E2.61751
G1 X92.077 Y103.027 E2.63584
G1 X92.272 Y102.512 E2.65416
G1 X92.541 Y102.031 E2.67249
G1 X93.03 Y101.43 E2.69826
G1 X93.147 Y101.313 E2.70376
M204 S3000
M205 X10 Y10
G0 F3000 X93.43 Y101.596
M204 S1800
M205 X8 Y8
G1 F2400 X93.826 Y101.257 E2.7211
G1 X94.268 Y100.982 E2.73841
G1 X94.748 Y100.778 E2.75576
G1 X95.253 Y100.65 E2.77309
G1 X95.834 Y100.6 E2.79248
G1 X102.528 Y100.6 E3.01513
G1 X102.513 Y100.528 E3.01757
G1 X102.49 Y100.007 E3.03492
G1 X102.546 Y99.489 E3.05225
G1 X102.681 Y98.986 E3.06957
G1 X102.892 Y98.509 E3.08692
G1 X103.173 Y98.07 E3.10425
G1 X103.517 Y97.679 E3.12157
G1 X103.94 Y97.329 E3.13984
G1 X104.966 Y96.612 E3.18147
G1 X105.324 Y96.394 E3.19541
G1 X105.995 Y96.039 E3.22066
G1 X106.363 Y95.871 E3.23411
G1 X107.015 Y95.62 E3.25735
G1 X107.427 Y95.491 E3.27171
G1 X108.385 Y95.256 E3.30452
G1 X109.074 Y95.16 E3.32765
G1 X109.984 Y95.111 E3.35796
G1 X110.378 Y95.112 E3.37107
G1 X111.184 Y95.161 E3.39793
G1 X111.701 Y95.233 E3.41529
G1 X111.765 Y95.252 E3.41751
G1 X112.405 Y95.375 E3.43918
G1 X112.913 Y95.514 E3.4567
G1 X113.721 Y95.804 E3.48525
G1 X114.137 Y95.986 E3.50036
G1 X114.897 Y96.38 E3.52883
G1 X115.34 Y96.654 E3.54615
G1 X115.387 Y96.694 E3.54821
G1 X116.083 Y97.185 E3.57654
G1 X116.485 Y97.517 E3.59388
G1 X116.667 Y97.722 E3.60299
G1 X117.043 Y98.068 E3.61999
G1 X117.432 Y98.475 E3.63871
G1 X117.754 Y98.885 E3.65605
G1 X118.009 Y99.34 E3.6734
G1 X118.172 Y99.761 E3.68842
G1 X118.298 Y100.266 E3.70573
G1 X118.346 Y100.824 E3.72436
G1 X118.348 Y101.37 E3.74252
G1 X118.31 Y101.889 E3.75983
G1 X118.193 Y102.397 E3.77716
G1 X118 Y102.881 E3.79449
G1 X117.735 Y103.33 E3.81183
G1 X117.362 Y103.776 E3.83117
G1 X117.245 Y103.894 E3.8367
G1 X116.851 Y104.235 E3.85403
G1 X116.409 Y104.511 E3.87136
G1 X115.931 Y104.717 E3.88867
G1 X115.426 Y104.848 E3.90603
G1 X114.831 Y104.9 E3.92589
G1 X114.266 Y104.9 E3.94468
G1 X113.746 Y104.86 E3.96203
G1 X113.239 Y104.741 E3.97935
G1 X112.872 Y104.602 E3.9924
G1 X112.409 Y104.362 E4.00975
G1 X111.989 Y104.055 E4.02705
G1 X111.769 Y103.849 E4.03708
G1 X111.308 Y103.377 E4.05902
G1 X110.904 Y103.111 E4.07511
G1 X110.442 Y102.948 E4.0914
G1 X109.9 Y102.924 E4.10945
G1 X109.434 Y103.043 E4.12545
G1 X109.004 Y103.312 E4.14231
G1 X108.561 Y103.586 E4.15964
G1 X108.44 Y103.637 E4.16401
G1 X108.481 Y104.115 E4.17996
G1 X108.482 Y105.881 E4.2387
G1 X108.444 Y106.369 E4.25498
G1 X109.005 Y106.69 E4.27648
G1 X109.453 Y106.964 E4.29395
G1 X109.902 Y107.082 E4.30939
G1 X110.207 Y107.087 E4.31953
G1 X110.698 Y106.985 E4.33621
G1 X111.215 Y106.697 E4.35589
G1 X111.758 Y106.147 E4.3816
G1 X112.151 Y105.806 E4.39891
G1 X112.593 Y105.528 E4.41627
G1 X112.918 Y105.377 E4.42819
G1 X113.411 Y105.208 E4.44553
G1 X113.924 Y105.117 E4.46286
G1 X114.262 Y105.1 E4.47411
G1 X114.83 Y105.1 E4.493
G1 X115.35 Y105.14 E4.51035
G1 X115.857 Y105.259 E4.52767
G1 X116.34 Y105.454 E4.545
G1 X116.788 Y105.72 E4.56232
G1 X117.234 Y106.096 E4.58173
G1 X117.351 Y106.213 E4.58723
G1 X117.69 Y106.609 E4.60457
G1 X117.965 Y107.051 E4.62188
G1 X118.169 Y107.531 E4.63923
G1 X118.297 Y108.036 E4.65656
G1 X118.347 Y108.617 E4.67595
G1 X118.347 Y109.172 E4.69441
G1 X118.307 Y109.692 E4.71176
G1 X118.188 Y110.199 E4.72908
G1 X118.035 Y110.597 E4.74326
G1 X117.791 Y111.057 E4.76058
G1 X117.328 Y111.638 E4.78529
G1 X116.817 Y112.152 E4.8094
G1 X116.459 Y112.509 E4.82621
G1 X116.076 Y112.821 E4.84264
G1 X115.495 Y113.229 E4.86626
G1 X115.314 Y113.352 E4.87353
G1 X114.885 Y113.629 E4.89052
G1 X114.25 Y113.951 E4.9142
G1 X114.15 Y114.015 E4.91815
G1 X113.573 Y114.257 E4.93896
G1 X113.094 Y114.408 E4.95566
G1 X112.39 Y114.628 E4.98019
G1 X111.714 Y114.755 E5.00307
G1 X111.178 Y114.84 E5.02112
G1 X110.551 Y114.878 E5.04201
G1 X109.973 Y114.902 E5.06126
G1 X109.243 Y114.857 E5.08558
G1 X108.678 Y114.783 E5.10453
G1 X108.578 Y114.766 E5.10791
G1 X107.581 Y114.58 E5.14164
G1 X107.078 Y114.446 E5.15895
G1 X106.811 Y114.339 E5.16852
G1 X105.841 Y113.903 E5.20389
G1 X105.461 Y113.703 E5.21817
G1 X104.779 Y113.286 E5.24476
G1 X104.423 Y113.035 E5.25925
G1 X103.792 Y112.528 E5.28617
G1 X103.412 Y112.172 E5.30349
G1 X103.091 Y111.761 E5.32084
G1 X102.837 Y111.307 E5.33814
G1 X102.655 Y110.818 E5.35549
G1 X102.549 Y110.308 E5.37282
G1 X102.523 Y109.787 E5.39017
G1 X102.563 Y109.4 E5.40311
G1 X95.833 Y109.4 E5.62695
G1 X95.313 Y109.36 E5.6443
G1 X94.806 Y109.241 E5.66162
G1 X94.323 Y109.046 E5.67894
G1 X93.875 Y108.78 E5.69627
G1 X93.429 Y108.404 E5.71567
G1 X93.312 Y108.287 E5.72118
G1 X92.973 Y107.891 E5.73851
G1 X92.698 Y107.449 E5.75583
G1 X92.494 Y106.969 E5.77317
G1 X92.366 Y106.464 E5.7905
G1 X92.316 Y105.881 E5.80996
G1 X92.317 Y104.115 E5.8687
G1 X92.357 Y103.595 E5.88605
G1 X92.476 Y103.088 E5.90337
G1 X92.672 Y102.605 E5.92071
G1 X92.939 Y102.157 E5.93805
G1 X93.313 Y101.713 E5.95736
G1 X93.43 Y101.596 E5.96286
M204 S3000
M205 X10 Y10
G0 F3000 X93.713 Y101.879
M204 S1800
M205 X8 Y8
G1 F2400 X94.086 Y101.562 E5.97914
G1 X94.506 Y101.31 E5.99544
G1 X94.961 Y101.13 E6.01171
G1 X95.439 Y101.026 E6.02798
G1 X95.834 Y101 E6.04115
G1 X103.032 Y101 E6.28055
G1 X102.951 Y100.728 E6.28999
G1 X102.891 Y100.242 E6.30628
G1 X102.91 Y99.753 E6.32256
G1 X103.009 Y99.274 E6.33882
G1 X103.184 Y98.817 E6.3551
G1 X103.431 Y98.394 E6.37139
G1 X103.744 Y98.018 E6.38766
G1 X104.17 Y97.657 E6.40624
G1 X105.196 Y96.94 E6.44787
G1 X105.511 Y96.747 E6.46016
G1 X106.182 Y96.392 E6.4854
G1 X106.507 Y96.244 E6.49728
G1 X107.159 Y95.993 E6.52052
G1 X107.522 Y95.879 E6.53317
G1 X108.48 Y95.644 E6.56598
G1 X109.088 Y95.56 E6.5864
G1 X110.006 Y95.511 E6.61697
G1 X110.354 Y95.512 E6.62855
G1 X111.16 Y95.561 E6.6554
G1 X111.697 Y95.647 E6.67349
G1 X112.33 Y95.768 E6.69493
G1 X112.777 Y95.89 E6.71034
G1 X113.585 Y96.18 E6.73889
G1 X113.953 Y96.341 E6.75225
G1 X114.713 Y96.735 E6.78072
G1 X115.156 Y97.02 E6.79824
G1 X115.853 Y97.512 E6.82662
G1 X116.229 Y97.826 E6.84291
G1 X116.379 Y98.001 E6.85058
G1 X116.772 Y98.362 E6.86833
G1 X117.137 Y98.745 E6.88592
G1 X117.437 Y99.132 E6.90221
G1 X117.77 Y99.821 E6.92766
G1 X117.908 Y100.363 E6.94626
G1 X117.946 Y100.825 E6.96168
G1 X117.948 Y101.371 E6.97984
G1 X117.91 Y101.859 E6.99612
G1 X117.793 Y102.334 E7.01239
G1 X117.6 Y102.784 E7.02868
G1 X117.337 Y103.197 E7.04496
G1 X116.961 Y103.612 E7.06359
G1 X116.589 Y103.931 E7.07989
G1 X116.171 Y104.184 E7.09614
G1 X115.716 Y104.366 E7.11244
G1 X115.239 Y104.472 E7.12869
G1 X114.831 Y104.5 E7.14229
G1 X114.266 Y104.5 E7.16109
G1 X113.778 Y104.46 E7.17737
G1 X113.094 Y104.262 E7.20105
G1 X112.595 Y104.006 E7.21971
G1 X112.055 Y103.569 E7.24281
G1 X111.575 Y103.078 E7.26565
G1 X111.083 Y102.753 E7.28526
G1 X110.789 Y102.618 E7.29602
G1 X110.29 Y102.527 E7.31289
G1 X109.843 Y102.527 E7.32776
G1 X109.278 Y102.673 E7.34717
G1 X108.768 Y102.989 E7.36713
G1 X108.351 Y103.244 E7.38338
G1 X107.983 Y103.393 E7.39659
G1 X108.055 Y103.722 E7.40779
G1 X108.081 Y104.115 E7.42089
G1 X108.082 Y105.881 E7.47963
G1 X108.042 Y106.369 E7.49591
G1 X107.982 Y106.612 E7.50424
G1 X108.187 Y106.681 E7.51143
G1 X108.769 Y107.013 E7.53372
G1 X109.295 Y107.333 E7.55419
G1 X109.873 Y107.482 E7.57405
G1 X110.252 Y107.485 E7.58665
G1 X110.559 Y107.446 E7.59695
G1 X111.072 Y107.254 E7.61516
G1 X111.465 Y107.012 E7.63051
G1 X112.042 Y106.428 E7.65782
G1 X112.414 Y106.109 E7.67412
G1 X112.99 Y105.781 E7.69617
G1 X113.54 Y105.588 E7.71555
G1 X114.262 Y105.5 E7.73974
G1 X114.83 Y105.5 E7.75864
G1 X115.318 Y105.54 E7.77492
G1 X115.793 Y105.659 E7.79121
G1 X116.242 Y105.853 E7.80748
G1 X116.654 Y106.118 E7.82377
G1 X117.068 Y106.496 E7.84241
G1 X117.385 Y106.869 E7.8587
G1 X117.637 Y107.289 E7.87499
G1 X117.817 Y107.744 E7.89126
G1 X117.921 Y108.222 E7.90753
G1 X117.947 Y108.617 E7.9207
G1 X117.947 Y109.172 E7.93916
G1 X117.907 Y109.66 E7.95544
G1 X117.698 Y110.368 E7.97999
G1 X117.437 Y110.869 E7.99878
G1 X117.045 Y111.356 E8.01958
G1 X116.534 Y111.87 E8.04368
G1 X116.14 Y112.258 E8.06208
G1 X115.847 Y112.493 E8.07457
G1 X115.226 Y112.928 E8.09979
G1 X115.176 Y112.974 E8.10205
G1 X114.704 Y113.272 E8.12061
G1 X114.019 Y113.62 E8.14617
G1 X113.453 Y113.876 E8.16683
G1 X112.975 Y114.027 E8.1835
G1 X112.935 Y114.048 E8.185
G1 X112.316 Y114.235 E8.20651
G1 X111.54 Y114.381 E8.23277
G1 X111.154 Y114.44 E8.24576
G1 X110.622 Y114.472 E8.26349
G1 X110.577 Y114.482 E8.26502
G1 X109.997 Y114.502 E8.28432
G1 X109.267 Y114.457 E8.30865
G1 X108.74 Y114.388 E8.32633
G1 X107.655 Y114.187 E8.36303
G1 X106.975 Y113.974 E8.38673
G1 X106.005 Y113.538 E8.4221
G1 X105.67 Y113.361 E8.4347
G1 X104.988 Y112.944 E8.46129
G1 X104.674 Y112.724 E8.47404
G1 X104.043 Y112.217 E8.50096
G1 X103.688 Y111.88 E8.51724
G1 X103.392 Y111.49 E8.53353
G1 X103.163 Y111.057 E8.54982
G1 X103.008 Y110.593 E8.56609
G1 X102.931 Y110.109 E8.58239
G1 X102.933 Y109.62 E8.59865
G1 X103.062 Y109 E8.61972
G1 X95.833 Y109 E8.86016
G1 X95.345 Y108.96 E8.87644
G1 X94.87 Y108.841 E8.89273
G1 X94.421 Y108.647 E8.909
G1 X94.009 Y108.382 E8.92529
G1 X93.595 Y108.004 E8.94393
G1 X93.278 Y107.631 E8.96022
G1 X93.026 Y107.211 E8.97651
G1 X92.846 Y106.756 E8.99278
G1 X92.742 Y106.278 E9.00905
G1 X92.716 Y105.881 E9.02228
G1 X92.717 Y104.115 E9.08102
G1 X92.757 Y103.627 E9.09731
G1 X92.876 Y103.153 E9.11356
G1 X93.071 Y102.704 E9.12984
G1 X93.336 Y102.292 E9.14614
G1 X93.713 Y101.879 E9.16473
M204 S3000
M205 X10 Y10
G0 F3000 X93.879 Y102.279
M204 S1800
M205 X8 Y8
G1 F2400 X94.345 Y101.869 E9.18538
G1 X94.74 Y101.642 E9.20053
G1 X95.168 Y101.487 E9.21567
G1 X95.834 Y101.4 E9.23801
G1 X103.636 Y101.4 E9.49751
G1 X103.401 Y100.875 E9.51664
G1 X103.307 Y100.429 E9.5318
G1 X103.292 Y99.973 E9.54697
G1 X103.357 Y99.522 E9.56213
G1 X103.499 Y99.09 E9.57725
G1 X103.715 Y98.688 E9.59243
G1 X103.998 Y98.331 E9.60758
G1 X104.399 Y97.985 E9.6252
G1 X105.425 Y97.268 E9.66683
G1 X105.698 Y97.101 E9.67747
G1 X106.369 Y96.746 E9.70272
G1 X106.651 Y96.618 E9.71302
G1 X107.303 Y96.367 E9.73626
G1 X107.618 Y96.268 E9.74724
G1 X108.576 Y96.033 E9.78005
G1 X109.102 Y95.96 E9.79771
G1 X110.028 Y95.91 E9.82856
G1 X110.33 Y95.911 E9.8386
G1 X111.136 Y95.96 E9.86546
G1 X111.626 Y96.04 E9.88197
G1 X112.254 Y96.161 E9.90324
G1 X112.642 Y96.267 E9.91662
G1 X113.45 Y96.557 E9.94517
G1 X113.769 Y96.696 E9.95675
G1 X114.529 Y97.09 E9.98522
G1 X114.937 Y97.356 E10.00142
G1 X115.622 Y97.839 E10.0293
G1 X116.091 Y98.279 E10.05069
G1 X116.501 Y98.656 E10.06921
G1 X116.842 Y99.015 E10.08568
G1 X117.119 Y99.377 E10.10084
G1 X117.391 Y99.948 E10.12188
G1 X117.518 Y100.457 E10.13932
G1 X117.546 Y100.826 E10.15163
G1 X117.548 Y101.372 E10.16979
G1 X117.51 Y101.826 E10.18495
G1 X117.393 Y102.267 E10.20012
G1 X117.201 Y102.68 E10.21527
G1 X116.794 Y103.213 E10.23757
G1 X116.329 Y103.625 E10.25824
G1 X115.935 Y103.854 E10.2734
G1 X115.508 Y104.01 E10.28852
G1 X114.831 Y104.1 E10.31123
G1 X114.266 Y104.1 E10.33002
G1 X113.812 Y104.06 E10.34518
G1 X113.251 Y103.894 E10.36464
G1 X112.782 Y103.651 E10.38221
G1 X112.341 Y103.289 E10.40118
G1 X111.85 Y102.786 E10.42456
G1 X111.275 Y102.4 E10.4476
G1 X110.918 Y102.238 E10.46064
G1 X110.328 Y102.129 E10.48059
G1 X109.787 Y102.13 E10.49859
G1 X109.119 Y102.304 E10.52155
G1 X108.532 Y102.665 E10.54447
G1 X108.142 Y102.901 E10.55963
G1 X107.717 Y103.064 E10.57477
G1 X107.471 Y103.112 E10.5831
G1 X107.594 Y103.451 E10.5951
G1 X107.681 Y104.116 E10.6174
G1 X107.682 Y105.882 E10.67614
G1 X107.642 Y106.335 E10.69127
G1 X107.471 Y106.888 E10.71052
G1 X107.779 Y106.955 E10.721
G1 X108.2 Y107.129 E10.73615
G1 X108.761 Y107.503 E10.75858
G1 X109.139 Y107.703 E10.7728
G1 X109.641 Y107.849 E10.79019
G1 X110.093 Y107.896 E10.80531
G1 X110.647 Y107.838 E10.82383
G1 X111.266 Y107.605 E10.84583
G1 X111.704 Y107.335 E10.86294
G1 X111.731 Y107.312 E10.86412
G1 X112.327 Y106.709 E10.89232
G1 X112.674 Y106.415 E10.90745
G1 X113.148 Y106.149 E10.92553
G1 X113.667 Y105.969 E10.9438
G1 X114.262 Y105.9 E10.96372
